icons-dark/mimetypes/16/text-x-tcl.svg

<?xml version="1.0" encoding="UTF-8" standalone="no"?>

<!-- Created with Inkscape (http://www.inkscape.org/) -->
<svg width="16" version="1.1" xmlns="http://www.w3.org/2000/svg" height="16" viewBox="0 0 16 16" xmlns:inkscape="http://www.inkscape.org/namespaces/inkscape">
 <defs id="defs4"/>
 <metadata id="metadata7"/>
 <g inkscape:label="Capa 1" inkscape:groupmode="layer" id="layer1" transform="matrix(1 0 0 1 0 -1036.3622)">
  <rect width="0" x="-17" y="1039.3622" height="10.999983" style="fill:#f27935" id="rect4035"/>
  <path style="fill:#f27935;color:#000000;stroke-width:0.1" id="rect3918" d="M 3.7148438 3 L 3 3.6953125 L 5.6386719 6.4921875 L 3.0175781 9.3046875 L 3.7324219 10 L 6.6757812 6.8378906 L 7 6.4921875 L 6.6757812 6.1445312 L 3.7148438 3 z M 7 12 L 7 13 L 13 13 L 13 12 L 7 12 z " transform="matrix(1 0 0 1 0 1036.3622)"/>
 </g>
</svg>

<svg width="16" xmlns="http://www.w3.org/2000/svg" height="16" viewBox="0 0 16 16">
 <path fill="#f27935" color="#000000" stroke-width=".1" d="m3.715 3l-.715.695 2.639 2.797-2.621 2.813.715.695 2.943-3.162.324-.346-.324-.348zm3.285 9v1h6v-1z"/>
</svg>
